!!!OTL: 1757. Der Bauernsohn in der Fremde.
!!!ARE: Europa, Mitteleuropa, Deutschland, Uckermark
!!!SCT: E1757
!!!TXL: @@NDS
!!!YEM: Copyright 1995, estate of Helmut Schaffrath.
**kern	**text
*ICvox	*
*M2/4	*
*k[f#]	*
*G:	*
!LO:TX:a:t=Aus der Uckermark.	!
{8e	Mien
=1	=1
8g	Vä-
8a	-der
8b	heet
8cc	Hans
=2	=2
8ee	Vä-
8dd	-gel-
8dd}	-neſt,
{8dd	was
=3	=3
8cc	Bur
8b	wol
8a	in
8dd	Po-
=4	=4
4b/	-mel-
8g;}	-len;
{8e	He
=5	=5
8g	war
8a	ok
8b	mäl
8cc	up
=6	=6
8ee	Rei-
8dd	-ſen
8dd}	weſt,
{8dd	drum
=7	=7
8cc	kunn
8b	he
8a	wat
8dd	ver-
=8	=8
4b/	-täl-
8g;}	-len.
{8g	Ees
=9	=9
8a	ſähd'
8a	he
8b	to
8b	mi
=10	=10
8cc	'Jo,
8cc	min
8dd}	Jung,
{8dd	du
=11	=11
8a	müßt
8a	di
8b/	wat
8g	ver-
=12	=12
4dd	-ſö-
8d;}	-ken,
{8d	ſüſt
=13	=13
8g	bliffſt
8a	du
8b	a-
8cc	-ka-
=14	=14
8ee	-rät
8dd	ſo
8dd}	dumm,
{8dd	as
=15	=15
8cc	Ee-
8b	-ken
8a	un
8dd	as
=16	=16
4b	Bö-
8g;}	-ken!'
==	==
!!!AGN: Spott - Lied
!!!ONB: ESAC (Essen Associative Code) Database: ERK3
!!!AMT: simple duple
!!!AIN: vox
!!!EED: Helmut Schaffrath
!!!EEV: 1.0
!!!GTL: Scherz-, Spiel- und Spottlieder.
!!!URL-scan: https://rosdok.uni-rostock.de/mcrviewer/recordIdentifier/rosdok_ppn745177999/iview2/phys_0546.iview2?x=-673.220725535256&y=1517.165878795553&scale=0.41997245235528546&rotation=0&layout=singlePageLayout
!!!ENC: Anna Maria Matuszewska
!!!EEV: 2025/08/01
*-	*-
